X:1
T:Ahime che col fuggire
T:Luca marenzio
T:Source ; Il primo libro delle Villanelle a tre voci---Venetia---G.Vincenzi---1586. Editor : André Vierendeels (07/05/17).
T:Notes : Original clefs : C1, C2, F4 Editorial accidentals above the staff "Terza impressione" m 10 in S 1 : quarter rest not in original print
T:Ahime che col fuggire
T:©
T:©
C:Luca marenzio
Z:©
%%score [ 1 2 3 ]
L:1/8
Q:1/4=120
M:4/4
K:C
V:1 treble nm="Soprano 1" snm="S 1"
V:2 treble nm="Soprano 2" snm="S 2"
V:3 bass nm="Bass" snm="B"
V:1
"^1)" c8- | c8 | B8 | z2 e2 d2 c2 | B4 B4 | z2 B2 A2 B2 | c2 B2 A4 |1[M:2/4] G4 ::2[M:4/4] G8 || %9
w: Ahi-||me,|che col fug-|gi- re,|mi se- gue|piu'il mar- ti-|ri,|ri,|
w: Ahi-||me,|ch'io vo'al mo-|ri- re,|poi che non|do fug- gi-|re,|re,|
 z2 c3 c c2 | d3 c B4 | G2 E3 E F2 | G3 A B4 | G2 d2 d4- | d2 c2 B2 A2 | A4 d4- | d4 e4- | %17
w: io per me|trop- po fug-|go, io per me|trop- po fug-|go, ma cre-|* sce'in me l'ar-|dor' e|_ mi|
w: deh, non mi|far mo- ri-|re, deh, non mi|far mo- ri-|re, gli'oc- chi|_ tuoi fur ca-|gion del|_ mio|
 e2 c2 B4 | A8 :| %19
w: _ di- strug-|go.|
w: _ mar- ti-|re.|
V:2
"^2)""^1)" A8- | A8 | ^G8 |"^-natural" z2 E2 G2 E2 | D4 D2 G2 | F2 G2 A4- | A2 G2 ^F4 |1 %7
w: Ahi-||me,|che col fug-|gi- re, mi|se- gue piu'il|_ mar- ti-|
w: Ahi-||me,|ch'io pian- go'e|stri- do, d'un|a- mo- ro-|* so Ni-|
[M:2/4] G4 ::2[M:4/4] G2 B3 B B2 || c3 B A4 | F2 D3 D D2 | E3 D C4 | D8 | z2 G2 B4- | B2 A2 G2 E2 | %15
w: ri,|ri, io per me|trop- po fug-|go, io per me|trop- po fug-|go,|ma cre-|* sce'in me l'ar-|
w: do,|do, che vo- len-|dol fug- gi-|re, che vo- len|dol fug- gi-|re,|ri- tien-|* si l'al- ma'in|
 ^F8 | G4 E2 ^F2 | ^G2 A4 G2 | A8 :| %19
w: dor'|e mi di-|strug- * *|go.|
w: co-|si bel de-|si- * *|re.|
V:3
"^3)""^1)""^4)" A,,8- | A,,8 | E,8 | z2 C,2 B,,2 C,2 | G,4 G,2 E,2 | D,2 E,2 F,4- | F,2 G,2 D,4 |1 %7
w: Ahi-||me|che col fug-|gi- re, mi|se- gue piu'il|_ mar- ti-|
w: Ahi-||me|che col mio|can- to, piu|cre- sce'il mio|_ gran pian-|
[M:2/4] G,,4 ::2[M:4/4] G,,2 G,3 G, G,2 || A,3 G, F,4 | D,2 G,3 G, G,2 | C3 C A,4 | G,8 | %13
w: re,|re, io per me|trop- po fug-|go, io per me|trop- po fug-|go,|
w: to,|to, e se non|por- gi'a- i-|ta, e se son|por- gi'a- i-|ta,|
 G,,4 G,,4- | G,,2 A,,2 B,,2 C,2 | D,8 | B,,4 C,2 D,2 | E,8 | A,,8 :| %19
w: ma cres-|* sce'in me l'ar-|dor'|e mi di-|strug-|go.|
w: fug- gi-|* rà l'al- ma'e|fi-|ni- ro la|vi-|ta.|

